app/dist/common/images/hireright-holdings.svg

<svg height="18" viewBox="0 0 18 18" width="18" xmlns="http://www.w3.org/2000/svg"><path d="m0 0h18v18h-18z" fill="#f0f3fa"/><path d="m8.65 12.33v-1.66h-.65v2.33h4.54v-.67zm5.7-6.66v1.66h.65v-2.33h-4.54v.67h3.9zm-8.35 2.79h-2v-1.96h-1v5h1v-1.96h2v1.96h1v-5h-1z" fill="#010101"/><path d="m12.4 9.72c.6-.26.92-.81.92-1.54v-.01c0-.47-.14-.87-.4-1.16-.3-.34-.76-.51-1.33-.51h-2.09v5h1v-1.6h.78l.95 1.6h1.27zm-.07-1.5c0 .4-.37.6-.8.6h-1.03v-1.25h1.01c.47 0 .82.24.82.66z" fill="#ea1010"/></svg>

<!-- by TradingView --><svg xmlns="http://www.w3.org/2000/svg" width="18" height="18" viewBox="0 0 18 18"><path fill="#F0F3FA" d="M0 0h18v18H0z"/><path d="M8.65 12.33v-1.66H8V13h4.54v-.67H8.65zM14.35 5.67v1.66H15V5h-4.54v.67h3.9zM6 8.46H4V6.5H3v5h1V9.54h2v1.96h1v-5H6v1.96z" fill="#010101"/><path d="M12.4 9.72c.6-.26.92-.81.92-1.54v-.01c0-.47-.14-.87-.4-1.16-.3-.34-.76-.51-1.33-.51H9.5v5h1V9.9h.78l.95 1.6h1.27l-1.1-1.78zm-.07-1.5c0 .4-.37.6-.8.6H10.5V7.57h1.01c.47 0 .82.24.82.66z" fill="#EA1010"/></svg>
